X: 13700
T: For Sara
R: waltz
M: 3/4
K: Cmajor
eg|A6|G4 eg|A6|G4 eg|
a2g2f2|e2d2c2|1 A6|G4:|2 A6-|A3A de ]|
|:f3e fg|e3G cd|e3G Bd|d2cc eg|
a2g2f2|e2d2c2|1 d6-|d3^c de:|2 A6-|A4||

